X: 0
T: Let Heaven And Earth Rejoice And Sing
L: 1/4
M: 4/4
Q: 1/4=100
K: Eb
[V: P1]  E | (E/D/) (E/F/) G B | c c B B | (A/G/) (B/c/) d d | d3 (c/B/) | B e d c | (B/A/) G F A | G (F/E/) (D/E/) F | E4|]

